humanity-icon-theme/Humanity/places/32/folder.svg

<?xml version="1.0" encoding="UTF-8" standalone="no"?>
<!-- Created with Inkscape (http://www.inkscape.org/) -->
<svg
   xmlns:dc="http://purl.org/dc/elements/1.1/"
   xmlns:cc="http://creativecommons.org/ns#"
   xmlns:rdf="http://www.w3.org/1999/02/22-rdf-syntax-ns#"
   xmlns:svg="http://www.w3.org/2000/svg"
   xmlns="http://www.w3.org/2000/svg"
   xmlns:xlink="http://www.w3.org/1999/xlink"
   xmlns:sodipodi="http://sodipodi.sourceforge.net/DTD/sodipodi-0.dtd"
   xmlns:inkscape="http://www.inkscape.org/namespaces/inkscape"
   version="1.0"
   width="32"
   height="32"
   id="svg4188"
   sodipodi:version="0.32"
   inkscape:version="0.46"
   sodipodi:docname="folder.svg"
   inkscape:output_extension="org.inkscape.output.svg.inkscape">
  <metadata
     id="metadata58">
    <rdf:RDF>
      <cc:Work
         rdf:about="">
        <dc:format>image/svg+xml</dc:format>
        <dc:type
           rdf:resource="http://purl.org/dc/dcmitype/StillImage" />
      </cc:Work>
    </rdf:RDF>
  </metadata>
  <sodipodi:namedview
     inkscape:window-height="781"
     inkscape:window-width="1440"
     inkscape:pageshadow="2"
     inkscape:pageopacity="0.0"
     guidetolerance="10.0"
     gridtolerance="10.0"
     objecttolerance="10.0"
     borderopacity="1.0"
     bordercolor="#666666"
     pagecolor="#ffffff"
     id="base"
     showgrid="false"
     inkscape:zoom="15.5625"
     inkscape:cx="6.2650602"
     inkscape:cy="18.675682"
     inkscape:window-x="0"
     inkscape:window-y="24"
     inkscape:current-layer="svg4188" />
  <defs
     id="defs4190">
    <linearGradient
       id="linearGradient5060-820">
      <stop
         id="stop2681"
         style="stop-color:#000000;stop-opacity:1"
         offset="0" />
      <stop
         id="stop2683"
         style="stop-color:#000000;stop-opacity:0"
         offset="1" />
    </linearGradient>
    <linearGradient
       id="linearGradient5060-179">
      <stop
         id="stop2675"
         style="stop-color:#000000;stop-opacity:1"
         offset="0" />
      <stop
         id="stop2677"
         style="stop-color:#000000;stop-opacity:0"
         offset="1" />
    </linearGradient>
    <linearGradient
       id="linearGradient5048-585">
      <stop
         id="stop2667"
         style="stop-color:#000000;stop-opacity:0"
         offset="0" />
      <stop
         id="stop2669"
         style="stop-color:#000000;stop-opacity:1"
         offset="0.5" />
      <stop
         id="stop2671"
         style="stop-color:#000000;stop-opacity:0"
         offset="1" />
    </linearGradient>
    <linearGradient
       id="linearGradient3484">
      <stop
         id="stop3486"
         style="stop-color:#bdbdbd;stop-opacity:1"
         offset="0" />
      <stop
         id="stop3488"
         style="stop-color:#d0d0d0;stop-opacity:1"
         offset="1" />
    </linearGradient>
    <linearGradient
       id="linearGradient6404">
      <stop
         id="stop6406"
         style="stop-color:#f9f9f9;stop-opacity:1"
         offset="0" />
      <stop
         id="stop6408"
         style="stop-color:#c9c9c9;stop-opacity:1"
         offset="1" />
    </linearGradient>
    <linearGradient
       id="linearGradient3390-178-986-453">
      <stop
         id="stop3624"
         style="stop-color:#bb2b12;stop-opacity:1"
         offset="0" />
      <stop
         id="stop3626"
         style="stop-color:#cd7233;stop-opacity:1"
         offset="1" />
    </linearGradient>
    <linearGradient
       id="linearGradient7012-661-145-733-759-865-745-661-970-94">
      <stop
         id="stop3618"
         style="stop-color:#f0c178;stop-opacity:1"
         offset="0" />
      <stop
         id="stop3270"
         style="stop-color:#e18941;stop-opacity:1"
         offset="0.5" />
      <stop
         id="stop3620"
         style="stop-color:#ec4f18;stop-opacity:1"
         offset="1" />
    </linearGradient>
    <linearGradient
       id="linearGradient6129-963-697-142-998-580-273">
      <stop
         id="stop2661"
         style="stop-color:#0a0a0a;stop-opacity:0.498"
         offset="0" />
      <stop
         id="stop2663"
         style="stop-color:#0a0a0a;stop-opacity:0"
         offset="1" />
    </linearGradient>
    <linearGradient
       id="linearGradient6087-437-184-795-110-662-495">
      <stop
         id="stop2693"
         style="stop-color:#ffffff;stop-opacity:0.40000001"
         offset="0" />
      <stop
         id="stop2695"
         style="stop-color:#ffffff;stop-opacity:0"
         offset="1" />
    </linearGradient>
    <linearGradient
       id="linearGradient8265-821-176-38-919-66-249">
      <stop
         id="stop2687"
         style="stop-color:#ffffff;stop-opacity:0.27450982"
         offset="0" />
      <stop
         id="stop2689"
         style="stop-color:#ffffff;stop-opacity:0.07843138"
         offset="1" />
    </linearGradient>
    <linearGradient
       inkscape:collect="always"
       xlink:href="#linearGradient5048-585"
       id="linearGradient2457"
       gradientUnits="userSpaceOnUse"
       gradientTransform="matrix(5.1142824e-2,0,0,1.5915752e-2,-2.4899573,22.29927)"
       x1="302.85715"
       y1="366.64789"
       x2="302.85715"
       y2="609.50507" />
    <radialGradient
       inkscape:collect="always"
       xlink:href="#linearGradient5060-179"
       id="radialGradient2459"
       gradientUnits="userSpaceOnUse"
       gradientTransform="matrix(1.9835731e-2,0,0,1.5915752e-2,16.38765,22.29927)"
       cx="605.71429"
       cy="486.64789"
       fx="605.71429"
       fy="486.64789"
       r="117.14286" />
    <radialGradient
       inkscape:collect="always"
       xlink:href="#linearGradient5060-820"
       id="radialGradient2461"
       gradientUnits="userSpaceOnUse"
       gradientTransform="matrix(-1.9835727e-2,0,0,1.5915752e-2,15.60139,22.29927)"
       cx="605.71429"
       cy="486.64789"
       fx="605.71429"
       fy="486.64789"
       r="117.14286" />
    <linearGradient
       inkscape:collect="always"
       xlink:href="#linearGradient8265-821-176-38-919-66-249"
       id="linearGradient2479"
       gradientUnits="userSpaceOnUse"
       gradientTransform="matrix(0.6515346,0,0,0.6760494,0.3603499,0.1849652)"
       x1="11.566265"
       y1="22.292103"
       x2="15.214532"
       y2="33.95525" />
    <radialGradient
       inkscape:collect="always"
       xlink:href="#linearGradient6087-437-184-795-110-662-495"
       id="radialGradient2482"
       gradientUnits="userSpaceOnUse"
       gradientTransform="matrix(0,0.7386341,-0.9984871,0,17.148572,6.8540185)"
       cx="7.2646537"
       cy="8.3021259"
       fx="7.2646537"
       fy="8.3021259"
       r="20.979567" />
    <linearGradient
       inkscape:collect="always"
       xlink:href="#linearGradient6129-963-697-142-998-580-273"
       id="linearGradient2485"
       gradientUnits="userSpaceOnUse"
       gradientTransform="matrix(0.7467531,0,0,0.6554922,-1.9220764,1.1676179)"
       x1="22.934725"
       y1="49.629246"
       x2="22.809399"
       y2="36.657963" />
    <radialGradient
       inkscape:collect="always"
       xlink:href="#linearGradient7012-661-145-733-759-865-745-661-970-94"
       id="radialGradient2488"
       gradientUnits="userSpaceOnUse"
       gradientTransform="matrix(1.007989,-6.1246211e-8,3.9794263e-8,0.6539555,-55.005411,6.1061543)"
       cx="63.969177"
       cy="14.113381"
       fx="63.969177"
       fy="14.113381"
       r="23.097054" />
    <linearGradient
       inkscape:collect="always"
       xlink:href="#linearGradient3390-178-986-453"
       id="linearGradient2490"
       gradientUnits="userSpaceOnUse"
       gradientTransform="matrix(0.644209,0,0,0.643728,-34.102646,0.7887616)"
       x1="82.453476"
       y1="45.114193"
       x2="82.453476"
       y2="10.82615" />
    <linearGradient
       inkscape:collect="always"
       xlink:href="#linearGradient6404"
       id="linearGradient2494"
       gradientUnits="userSpaceOnUse"
       gradientTransform="matrix(0.6416766,0,0,0.6402049,-32.150097,1.010881)"
       x1="62.988873"
       y1="13.182598"
       x2="62.988873"
       y2="16.19013" />
    <radialGradient
       inkscape:collect="always"
       xlink:href="#linearGradient3484"
       id="radialGradient2496"
       gradientUnits="userSpaceOnUse"
       gradientTransform="matrix(0,1.0974979,-1.3855921,0,8.756952,2.839947)"
       cx="3"
       cy="5.01718"
       fx="3"
       fy="5.01718"
       r="21" />
  </defs>
  <g
     id="g2458"
     transform="translate(0,-1.000001)">
    <rect
       style="opacity:0.3;fill:url(#linearGradient2457);fill-opacity:1;fill-rule:nonzero;stroke:none;stroke-width:1;stroke-linecap:round;stroke-linejoin:miter;marker:none;marker-start:none;marker-mid:none;marker-end:none;stroke-miterlimit:4;stroke-dasharray:none;stroke-dashoffset:0;stroke-opacity:1;visibility:visible;display:inline;overflow:visible"
       id="rect2925"
       y="28.134747"
       x="3.6471815"
       height="3.8652544"
       width="24.694677" />
    <path
       style="opacity:0.3;fill:url(#radialGradient2459);fill-opacity:1;fill-rule:nonzero;stroke:none;stroke-width:1;stroke-linecap:round;stroke-linejoin:miter;marker:none;marker-start:none;marker-mid:none;marker-end:none;stroke-miterlimit:4;stroke-dasharray:none;stroke-dashoffset:0;stroke-opacity:1;visibility:visible;display:inline;overflow:visible"
       id="path2927"
       d="M 28.341859,28.13488 C 28.341859,28.13488 28.341859,31.999921 28.341859,31.999921 C 29.36335,32.007197 30.811327,31.133961 30.811327,30.067152 C 30.811327,29.000342 29.671419,28.13488 28.341859,28.13488 z" />
    <path
       style="opacity:0.3;fill:url(#radialGradient2461);fill-opacity:1;fill-rule:nonzero;stroke:none;stroke-width:1;stroke-linecap:round;stroke-linejoin:miter;marker:none;marker-start:none;marker-mid:none;marker-end:none;stroke-miterlimit:4;stroke-dasharray:none;stroke-dashoffset:0;stroke-opacity:1;visibility:visible;display:inline;overflow:visible"
       id="path2929"
       d="M 3.6471816,28.13488 C 3.6471816,28.13488 3.6471816,31.999921 3.6471816,31.999921 C 2.6256904,32.007197 1.1777138,31.133961 1.1777138,30.067152 C 1.1777138,29.000342 2.3176206,28.13488 3.6471816,28.13488 z" />
  </g>
  <path
     style="fill:url(#linearGradient2494);fill-opacity:1;stroke:url(#radialGradient2496);stroke-width:1.00000012;stroke-linecap:round;stroke-linejoin:round;stroke-miterlimit:4;stroke-dasharray:none;stroke-opacity:1;display:inline"
     id="path2882"
     d="M 3,6.5074165 C 2.557069,6.5123275 2.5,6.7264605 2.5,7.1476215 C 2.5,10.678003 2.52059,13.328153 2.5,16.536126 C 3.421108,16.536126 29.514588,14.167539 29.514588,13.147993 L 29.514588,9.1820816 C 29.514588,8.7609206 29.158968,8.5369656 28.716035,8.5418766 L 15.937721,8.5418766 C 14.623899,8.5418766 13.692564,6.5074165 12.729338,6.5074165 L 3,6.5074165 z" />
  <rect
     style="fill:#eda374;fill-opacity:1;fill-rule:nonzero;stroke:none;stroke-width:1;marker:none;visibility:visible;display:block;overflow:visible;enable-background:accumulate"
     id="rect2892"
     y="8"
     x="4.0000014"
     ry="0.5"
     rx="0.61538464"
     height="1"
     width="8" />
  <path
     style="fill:url(#radialGradient2488);fill-opacity:1;stroke:url(#linearGradient2490);stroke-width:1;stroke-linecap:round;stroke-linejoin:round;stroke-miterlimit:4;stroke-dashoffset:0;stroke-opacity:1"
     id="path2931"
     d="M 1.9268353,11.499999 C 1.2357878,11.579625 1.604879,12.402582 1.5497817,12.865354 C 1.6299747,13.164415 2.1474964,28.583337 2.1474964,29.112792 C 2.1474964,29.572969 2.3741638,29.495006 2.9485023,29.495006 C 11.447903,29.495006 20.846581,29.495006 29.345982,29.495006 C 29.964708,29.509351 29.833949,29.502483 29.833949,29.105535 C 29.879172,28.902853 30.473875,12.127064 30.496766,11.862096 C 30.496766,11.583102 30.554865,11.499999 30.191836,11.499999 C 21.115334,11.499999 11.00334,11.499999 1.9268353,11.499999 z" />
  <path
     style="opacity:0.4;fill:url(#linearGradient2485);fill-opacity:1;stroke:none;stroke-width:1;stroke-linecap:round;stroke-linejoin:round;stroke-miterlimit:4;stroke-dashoffset:0;stroke-opacity:1"
     id="path2933"
     d="M 1.6818182,11 L 30.318182,11.000266 C 30.731883,11.000266 31,11.29236 31,11.655504 L 30.326494,29.367605 C 30.336061,29.82709 30.190093,30.009274 29.709425,29.999639 L 2.4532999,29.988097 C 2.0395984,29.988097 1.6224334,29.716924 1.6224334,29.353782 L 1,11.655493 C 1,11.292349 1.2681168,11 1.6818182,11 z" />
  <path
     style="fill:none;fill-rule:evenodd;stroke:url(#radialGradient2482);stroke-width:0.99999952;stroke-linecap:round;stroke-linejoin:round;stroke-miterlimit:4;stroke-dasharray:none;stroke-opacity:1"
     id="path2935"
     d="M 29.5,12.5 C 21.196732,12.5 10.803266,12.5 2.4999998,12.5 C 2.7365055,17.5 2.9730111,22.500001 3.2095168,27.500001" />
  <path
     style="fill:url(#linearGradient2479);fill-opacity:1;stroke:none;stroke-width:1;stroke-linecap:round;stroke-linejoin:round;stroke-miterlimit:4;stroke-dashoffset:0;stroke-opacity:1"
     id="path2937"
     d="M 30.405737,11.017168 C 20.926175,11.066755 11.205415,10.987455 1.7245005,11.001754 C 0.54733374,11.279689 1.1808557,12.669304 1.0909311,13.551491 C 1.235591,16.366119 1.3014202,19.193082 1.4951832,22 C 11.268537,20.402631 20.993365,18.885268 30.595629,17.234084 C 31.104472,15.48543 30.967512,12.329225 30.994211,11.689651 C 31.045461,11.232938 30.748835,11.009517 30.405737,11.017168 z" />
</svg>

<?xml version="1.0" encoding="UTF-8" standalone="no"?>
<!-- Created with Inkscape (http://www.inkscape.org/) -->
<svg id="svg4188" xmlns:rdf="http://www.w3.org/1999/02/22-rdf-syntax-ns#" xmlns="http://www.w3.org/2000/svg" height="32" width="32" version="1.0" xmlns:cc="http://creativecommons.org/ns#" xmlns:xlink="http://www.w3.org/1999/xlink" xmlns:dc="http://purl.org/dc/elements/1.1/">
 <metadata id="metadata58">
  <rdf:RDF>
   <cc:Work rdf:about="">
    <dc:format>image/svg+xml</dc:format>
    <dc:type rdf:resource="http://purl.org/dc/dcmitype/StillImage"/>
   </cc:Work>
  </rdf:RDF>
 </metadata>
 <defs id="defs4190">
  <linearGradient id="linearGradient2457" y2="609.51" gradientUnits="userSpaceOnUse" x2="302.86" gradientTransform="matrix(.051143 0 0 .015916 -2.49 22.299)" y1="366.65" x1="302.86">
   <stop id="stop2667" style="stop-opacity:0" offset="0"/>
   <stop id="stop2669" offset=".5"/>
   <stop id="stop2671" style="stop-opacity:0" offset="1"/>
  </linearGradient>
  <radialGradient id="radialGradient2459" gradientUnits="userSpaceOnUse" cy="486.65" cx="605.71" gradientTransform="matrix(.019836 0 0 .015916 16.388 22.299)" r="117.14">
   <stop id="stop2675" offset="0"/>
   <stop id="stop2677" style="stop-opacity:0" offset="1"/>
  </radialGradient>
  <radialGradient id="radialGradient2461" gradientUnits="userSpaceOnUse" cy="486.65" cx="605.71" gradientTransform="matrix(-.019836 0 0 .015916 15.601 22.299)" r="117.14">
   <stop id="stop2681" offset="0"/>
   <stop id="stop2683" style="stop-opacity:0" offset="1"/>
  </radialGradient>
  <linearGradient id="linearGradient2479" y2="33.955" gradientUnits="userSpaceOnUse" x2="15.215" gradientTransform="matrix(.65153 0 0 .67605 .36035 .18497)" y1="22.292" x1="11.566">
   <stop id="stop2687" style="stop-color:#fff;stop-opacity:.27451" offset="0"/>
   <stop id="stop2689" style="stop-color:#fff;stop-opacity:.078431" offset="1"/>
  </linearGradient>
  <radialGradient id="radialGradient2482" gradientUnits="userSpaceOnUse" cy="8.3021" cx="7.2647" gradientTransform="matrix(0 .73863 -.99849 0 17.149 6.854)" r="20.98">
   <stop id="stop2693" style="stop-color:#fff;stop-opacity:0.4" offset="0"/>
   <stop id="stop2695" style="stop-color:#fff;stop-opacity:0" offset="1"/>
  </radialGradient>
  <linearGradient id="linearGradient2485" y2="36.658" gradientUnits="userSpaceOnUse" x2="22.809" gradientTransform="matrix(.74675 0 0 .65549 -1.9221 1.1676)" y1="49.629" x1="22.935">
   <stop id="stop2661" style="stop-color:#0a0a0a;stop-opacity:.498" offset="0"/>
   <stop id="stop2663" style="stop-color:#0a0a0a;stop-opacity:0" offset="1"/>
  </linearGradient>
  <radialGradient id="radialGradient2488" gradientUnits="userSpaceOnUse" cy="14.113" cx="63.969" gradientTransform="matrix(1.008 -6.1246e-8 3.9794e-8 .65396 -55.005 6.1062)" r="23.097">
   <stop id="stop3618" style="stop-color:#f0c178" offset="0"/>
   <stop id="stop3270" style="stop-color:#e18941" offset=".5"/>
   <stop id="stop3620" style="stop-color:#ec4f18" offset="1"/>
  </radialGradient>
  <linearGradient id="linearGradient2490" y2="10.826" gradientUnits="userSpaceOnUse" x2="82.453" gradientTransform="matrix(.64421 0 0 .64373 -34.103 .78876)" y1="45.114" x1="82.453">
   <stop id="stop3624" style="stop-color:#bb2b12" offset="0"/>
   <stop id="stop3626" style="stop-color:#cd7233" offset="1"/>
  </linearGradient>
  <linearGradient id="linearGradient2494" y2="16.19" gradientUnits="userSpaceOnUse" x2="62.989" gradientTransform="matrix(.64168 0 0 .64020 -32.15 1.0109)" y1="13.183" x1="62.989">
   <stop id="stop6406" style="stop-color:#f9f9f9" offset="0"/>
   <stop id="stop6408" style="stop-color:#c9c9c9" offset="1"/>
  </linearGradient>
  <radialGradient id="radialGradient2496" gradientUnits="userSpaceOnUse" cy="5.0172" cx="3" gradientTransform="matrix(0 1.0975 -1.3856 0 8.757 2.8399)" r="21">
   <stop id="stop3486" style="stop-color:#bdbdbd" offset="0"/>
   <stop id="stop3488" style="stop-color:#d0d0d0" offset="1"/>
  </radialGradient>
 </defs>
 <g id="g2458" transform="translate(0 -1)">
  <rect id="rect2925" style="opacity:.3;fill:url(#linearGradient2457)" height="3.8653" width="24.695" y="28.135" x="3.6472"/>
  <path id="path2927" style="opacity:.3;fill:url(#radialGradient2459)" d="m28.342 28.135v3.865c1.021 0.007 2.469-0.866 2.469-1.933s-1.14-1.932-2.469-1.932z"/>
  <path id="path2929" style="opacity:.3;fill:url(#radialGradient2461)" d="m3.6472 28.135v3.865c-1.0215 0.007-2.4695-0.866-2.4695-1.933s1.1399-1.932 2.4695-1.932z"/>
 </g>
 <path id="path2882" style="stroke-linejoin:round;stroke:url(#radialGradient2496);stroke-linecap:round;fill:url(#linearGradient2494)" d="m3 6.5074c-0.4429 0.0049-0.5 0.2191-0.5 0.6402 0 3.5304 0.0206 6.1804 0 9.3884 0.9211 0 27.015-2.368 27.015-3.388v-3.9659c0-0.4212-0.356-0.6451-0.799-0.6402h-12.778c-1.314 0-2.245-2.0345-3.209-2.0345h-9.729z"/>
 <rect id="rect2892" style="display:block;fill:#eda374" rx=".61538" ry=".5" height="1" width="8" y="8" x="4"/>
 <path id="path2931" style="stroke-linejoin:round;stroke:url(#linearGradient2490);stroke-linecap:round;fill:url(#radialGradient2488)" d="m1.9268 11.5c-0.691 0.08-0.3219 0.903-0.377 1.365 0.0802 0.299 0.5977 15.718 0.5977 16.248 0 0.46 0.2267 0.382 0.801 0.382h26.398c0.619 0.014 0.488 0.007 0.488-0.389 0.045-0.203 0.64-16.979 0.663-17.244 0-0.279 0.058-0.362-0.305-0.362h-28.265z"/>
 <path id="path2933" style="opacity:.4;fill:url(#linearGradient2485)" d="m1.6818 11h28.636c0.414 0 0.682 0.292 0.682 0.656l-0.674 17.712c0.01 0.459-0.136 0.641-0.617 0.632l-27.256-0.012c-0.4134 0-0.8306-0.271-0.8306-0.634l-0.6224-17.699c0-0.363 0.2681-0.655 0.6818-0.655z"/>
 <path id="path2935" style="stroke-linejoin:round;stroke:url(#radialGradient2482);stroke-linecap:round;fill:none" d="m29.5 12.5h-27c0.2365 5 0.473 10 0.7095 15"/>
 <path id="path2937" style="fill:url(#linearGradient2479)" d="m30.406 11.017c-9.48 0.05-19.201-0.03-28.682-0.015-1.1767 0.278-0.5431 1.667-0.6331 2.549 0.1447 2.815 0.2105 5.642 0.4043 8.449 9.7738-1.597 19.498-3.115 29.101-4.766 0.508-1.749 0.372-4.905 0.398-5.544 0.051-0.457-0.245-0.68-0.588-0.673z"/>
</svg>
